packages/core/src/svgs/tokens/mono/EGG.svg

<svg width="24" height="24" viewBox="0 0 24 24" fill="none" xmlns="http://www.w3.org/2000/svg">
<path d="M19.4999 14.3262C19.4999 18.5637 16.1418 22 12 22C7.85813 22 4.5 18.5645 4.5 14.3262C4.5 10.0875 6.9675 2 12 2C17.0319 2 19.4999 10.0875 19.4999 14.3262Z" fill="white"/>
<path d="M18.9353 17.2525C19.3096 16.3224 19.5013 15.3289 19.4997 14.3262C19.4997 10.0875 17.0316 2 11.9997 2C8.74036 2 6.5566 5.39313 5.42285 8.93563L18.9353 17.2525Z" fill="white"/>
<path d="M9.88531 2.5166L8.20098 10.6454L5.42285 8.93536C6.29161 6.22286 7.77474 3.59785 9.88531 2.5166Z" fill="white"/>
<path d="M5.42313 8.93579C4.80625 10.862 4.5 12.8334 4.5 14.3264C4.5 16.2777 5.2125 18.0589 6.38439 19.4134L8.20125 10.6459L5.42313 8.93579Z" fill="white"/>
<path d="M19.499 14.3262C19.499 15.3625 19.2985 16.3506 18.9346 17.2525L15.124 14.9061V3.18555C18.0553 5.58993 19.499 11.0843 19.499 14.3262Z" fill="white"/>
<path d="M19.4999 14.3259C19.4999 15.3622 19.2994 16.3504 18.9355 17.2522L15.103 14.8935L19.3494 12.3159C19.45 13.041 19.4999 13.7222 19.4999 14.3259Z" fill="white"/>
<path d="M6.38818 19.3958L15.1107 14.8983L8.2013 10.6458L6.38818 19.3958Z" fill="white"/>
<path d="M15.124 21.3042V14.906L18.9347 17.2523C18.211 19.0461 16.8422 20.4973 15.124 21.3042Z" fill="white"/>
</svg>

<svg xmlns="http://www.w3.org/2000/svg" width="24" height="24" fill="none" viewBox="0 0 24 24">
    <path fill="#fff" d="M19.5 14.326C19.5 18.564 16.142 22 12 22s-7.5-3.436-7.5-7.674S6.968 2 12 2s7.5 8.088 7.5 12.326"/>
    <path fill="#fff" d="M18.935 17.253c.375-.93.566-1.924.565-2.927C19.5 10.088 17.032 2 12 2 8.74 2 6.557 5.393 5.423 8.936z"/>
    <path fill="#fff" d="m9.885 2.517-1.684 8.128-2.778-1.71c.869-2.712 2.352-5.337 4.462-6.418M5.423 8.936c-.617 1.926-.923 3.897-.923 5.39 0 1.952.713 3.733 1.884 5.087l1.817-8.767zm14.076 5.39c0 1.037-.2 2.025-.564 2.927l-3.811-2.347V3.186c2.931 2.404 4.375 7.898 4.375 11.14"/>
    <path fill="#fff" d="M19.5 14.326c0 1.036-.2 2.024-.564 2.926l-3.833-2.358 4.246-2.578c.101.725.15 1.406.15 2.01"/>
    <path fill="#fff" d="m6.388 19.396 8.723-4.498-6.91-4.252zm8.736 1.908v-6.398l3.81 2.346a7.63 7.63 0 0 1-3.81 4.052"/>
</svg>
